X: 32940
T: President Garfield's
R: hornpipe
M: 4/4
K: Cdorian
BFDF BFDF|BABc dcde|fcAc fcAc|f=efg f_edc|
BFDF BFDF|BABc dcde|fgag fedc|B2d2B2:|
geBG EGBg|fdBF DFBf|eAgf eAgf|dBgf dBba|
geBG EGBg|fdBF DFBf|=efag f_edc|B2d2B2:|

